X: 1
T: Oyster Girl, The
C: Trad
R: jig
M: 6/8
L: 1/8
K: Gmaj
|:B2c|ded B2G|A2F D3|GDG BGB|
d2B ABc|ded Bdg|f2e c2e|d2d cBA|G3:|
|:d2c|Bcd Bcd|e2c e2c|ABc ABc|
d2B d2B|ded Bdg|f2e c2e|d2d cBA|G3:|
